packages/icons/src/SVG/grid-solid.svg

<!-- Generated by IcoMoon.io -->
<svg version="1.1" xmlns="http://www.w3.org/2000/svg" width="12" height="12" viewBox="0 0 12 12">
<title>grid-solid</title>
<path d="M0 0h5v5h-5v-5z"></path>
<path d="M7 5v-5h5v5h-5z"></path>
<path d="M7 7v5h5v-5h-5z"></path>
<path d="M0 7h5v5h-5v-5z"></path>
</svg>

<svg width="12" height="12" viewBox="0 0 12 12" >
<path d="M0 0H5V5H0V0Z" />
<path d="M7 5V0H12V5H7Z" />
<path d="M7 7V12H12V7H7Z" />
<path d="M0 7H5V12H0V7Z" />
</svg>
